!!!OTL: 981. Der lustige Bettler.
!!!ODT: 1807
!!!ARE: Europa, Mitteleuropa, Deutschland
!!!SCT: E0981
!!!TXL: @@BAR
!!!YEM: Copyright 1995, estate of Helmut Schaffrath.
**kern	**text
*ICvox	*
*M3/8	*
*k[]	*
*C:	*
=1	=1
!LO:TX:a:t=Volksmel. 1807.	!
{8cc	Jck
8cc	und
8cc	mein
=2	=2
8.b/	jun-
16a	-ges
8g	Weib
=3	=3
8a	kön-
8a	-nen
8b/	ſchön
=4	=4
8.ccL	tan-
16ddJ	.
8cc}	-ʒa.
=5	=5
{8cc	Sie
8cc	mit
8cc	dem
=6	=6
8.b/	Bet-
16a	-tel-
8g	-ſack,
=7	=7
8a	ick
8a	mit
8b/	dem
=8	=8
8.ccL	Ran-
16ddJ	.
8cc}	-ʒa.
=9	=9
{8ee	Schenkt
8ee	mir
8ee	mal
=10	=10
8ff	Bai-
8ff	-riſch
8ff	ein,
=11	=11
8dd	wol-
8dd	-len
8dd	mal
=12	=12
8ee	lu-
8ee	-ſtig
8ee}	ſein,
=13	=13
{8cc	Bai-
4cc^^	-riſch,
=14	=14
8dd	Bai-
4dd^^	-riſch,
=15	=15
8g	Bai-
8a	-riſch
8b/	muß's
=16	=16
4cc	ſein.
8r}	.
==	==
!!!AGN: Tanz - Lied, Reigen, Bettler - Lied
!!!ONB: ESAC (Essen Associative Code) Database: ERK2
!!!AMT: simple triple
!!!AIN: vox
!!!EED: Helmut Schaffrath
!!!EEV: 1.0
!!!GTL: Tanz- und Spiellieder.
!!!URL-scan: https://rosdok.uni-rostock.de/mcrviewer/recordIdentifier/rosdok_ppn745177662/iview2/phys_0752.iview2?x=7.988798971054848&y=636.011437327601&scale=0.6546206717328796&rotation=0&layout=singlePageLayout
!!!ENC: Anna Maria Matuszewska
!!!EEV: 2024/12/20
*-	*-
